actions/16/go-last.svg

<?xml version="1.0" encoding="UTF-8" standalone="no"?>
<svg
   xmlns:dc="http://purl.org/dc/elements/1.1/"
   xmlns:cc="http://creativecommons.org/ns#"
   xmlns:rdf="http://www.w3.org/1999/02/22-rdf-syntax-ns#"
   xmlns:svg="http://www.w3.org/2000/svg"
   xmlns="http://www.w3.org/2000/svg"
   xmlns:xlink="http://www.w3.org/1999/xlink"
   version="1.1"
   width="16"
   height="16"
   id="svg4524">
  <defs
     id="defs4526">
    <linearGradient
       id="linearGradient2867-449-88-871-390-598-476-591-434-148-57-177-641-289-620-227-114-444-680-744-4-1">
      <stop
         id="stop5430-5-0"
         style="stop-color:#737373;stop-opacity:1"
         offset="0" />
      <stop
         id="stop5432-2-0"
         style="stop-color:#636363;stop-opacity:1"
         offset="0.26238" />
      <stop
         id="stop5434-9-6"
         style="stop-color:#4b4b4b;stop-opacity:1"
         offset="0.704952" />
      <stop
         id="stop5436-2-7"
         style="stop-color:#3f3f3f;stop-opacity:1"
         offset="1" />
    </linearGradient>
    <radialGradient
       cx="16.202444"
       cy="-19.005346"
       r="19.99999"
       fx="16.202444"
       fy="-19.005346"
       id="radialGradient3769"
       xlink:href="#linearGradient2867-449-88-871-390-598-476-591-434-148-57-177-641-289-620-227-114-444-680-744-4-1"
       gradientUnits="userSpaceOnUse"
       gradientTransform="matrix(0,1.5000006,-1.5241254,0,-16.959842,-23.077676)" />
    <radialGradient
       cx="16.202444"
       cy="-19.005346"
       r="19.99999"
       fx="16.202444"
       fy="-19.005346"
       id="radialGradient3896"
       xlink:href="#linearGradient2867-449-88-871-390-598-476-591-434-148-57-177-641-289-620-227-114-444-680-744-4-1"
       gradientUnits="userSpaceOnUse"
       gradientTransform="matrix(0,1.5000006,-1.5241254,0,-17.131885,-23.077676)" />
    <radialGradient
       cx="16.202444"
       cy="-19.005346"
       r="19.99999"
       fx="16.202444"
       fy="-19.005346"
       id="radialGradient3896-0"
       xlink:href="#linearGradient2867-449-88-871-390-598-476-591-434-148-57-177-641-289-620-227-114-444-680-744-4-1-5"
       gradientUnits="userSpaceOnUse"
       gradientTransform="matrix(0,1.2955087,1.315286,0,31.264773,-22.270403)" />
    <linearGradient
       id="linearGradient2867-449-88-871-390-598-476-591-434-148-57-177-641-289-620-227-114-444-680-744-4-1-5">
      <stop
         id="stop5430-5-0-9"
         style="stop-color:#737373;stop-opacity:1"
         offset="0" />
      <stop
         id="stop5432-2-0-0"
         style="stop-color:#636363;stop-opacity:1"
         offset="0.26238" />
      <stop
         id="stop5434-9-6-8"
         style="stop-color:#4b4b4b;stop-opacity:1"
         offset="0.704952" />
      <stop
         id="stop5436-2-7-0"
         style="stop-color:#3f3f3f;stop-opacity:1"
         offset="1" />
    </linearGradient>
    <linearGradient
       id="linearGradient2264">
      <stop
         id="stop2266"
         style="stop-color:#d7e866;stop-opacity:1"
         offset="0" />
      <stop
         id="stop2268"
         style="stop-color:#8cab2a;stop-opacity:1"
         offset="1" />
    </linearGradient>
    <linearGradient
       id="linearGradient2867-449-88-871-390-598-476-591-434-148-57-177-641-289-620-227-114-444-680-744-4-1-9">
      <stop
         id="stop5430-5-0-3"
         style="stop-color:#737373;stop-opacity:1"
         offset="0" />
      <stop
         id="stop5432-2-0-5"
         style="stop-color:#636363;stop-opacity:1"
         offset="0.26238" />
      <stop
         id="stop5434-9-6-0"
         style="stop-color:#4b4b4b;stop-opacity:1"
         offset="0.704952" />
      <stop
         id="stop5436-2-7-9"
         style="stop-color:#3f3f3f;stop-opacity:1"
         offset="1" />
    </linearGradient>
    <linearGradient
       id="linearGradient2867-449-88-871-390-598-476-591-434-148-57-177-641-289-620-227-114-444-680-744-4-1-5-4">
      <stop
         id="stop5430-5-0-9-1"
         style="stop-color:#737373;stop-opacity:1"
         offset="0" />
      <stop
         id="stop5432-2-0-0-3"
         style="stop-color:#636363;stop-opacity:1"
         offset="0.26238" />
      <stop
         id="stop5434-9-6-8-8"
         style="stop-color:#4b4b4b;stop-opacity:1"
         offset="0.704952" />
      <stop
         id="stop5436-2-7-0-9"
         style="stop-color:#3f3f3f;stop-opacity:1"
         offset="1" />
    </linearGradient>
    <radialGradient
       cx="16.202444"
       cy="-19.005346"
       r="19.99999"
       fx="16.202444"
       fy="-19.005346"
       id="radialGradient3896-0-4"
       xlink:href="#linearGradient2867-449-88-871-390-598-476-591-434-148-57-177-641-289-620-227-114-444-680-744-4-1-5-4"
       gradientUnits="userSpaceOnUse"
       gradientTransform="matrix(0,1.5000006,-1.5241254,0,-15.131754,-23.077676)" />
    <radialGradient
       cx="16.202444"
       cy="-19.005346"
       r="19.99999"
       fx="16.202444"
       fy="-19.005346"
       id="radialGradient3896-4"
       xlink:href="#linearGradient2867-449-88-871-390-598-476-591-434-148-57-177-641-289-620-227-114-444-680-744-4-1-58"
       gradientUnits="userSpaceOnUse"
       gradientTransform="matrix(0,1.5000006,-1.5241254,0,-17.131885,-23.077676)" />
    <radialGradient
       cx="16.202444"
       cy="-19.005346"
       r="19.99999"
       fx="16.202444"
       fy="-19.005346"
       id="radialGradient3769-6"
       xlink:href="#linearGradient2867-449-88-871-390-598-476-591-434-148-57-177-641-289-620-227-114-444-680-744-4-1-58"
       gradientUnits="userSpaceOnUse"
       gradientTransform="matrix(0,1.5000006,-1.5241254,0,-16.959842,-23.077676)" />
    <linearGradient
       id="linearGradient2867-449-88-871-390-598-476-591-434-148-57-177-641-289-620-227-114-444-680-744-4-1-58">
      <stop
         id="stop5430-5-0-1"
         style="stop-color:#737373;stop-opacity:1"
         offset="0" />
      <stop
         id="stop5432-2-0-9"
         style="stop-color:#636363;stop-opacity:1"
         offset="0.26238" />
      <stop
         id="stop5434-9-6-5"
         style="stop-color:#4b4b4b;stop-opacity:1"
         offset="0.704952" />
      <stop
         id="stop5436-2-7-3"
         style="stop-color:#3f3f3f;stop-opacity:1"
         offset="1" />
    </linearGradient>
    <radialGradient
       cx="16.202444"
       cy="-19.005346"
       r="19.99999"
       fx="16.202444"
       fy="-19.005346"
       id="radialGradient3081"
       xlink:href="#linearGradient2867-449-88-871-390-598-476-591-434-148-57-177-641-289-620-227-114-444-680-744-4-1-9"
       gradientUnits="userSpaceOnUse"
       gradientTransform="matrix(0,1.5000006,-1.5241254,0,0.040158,-24.077898)" />
  </defs>
  <metadata
     id="metadata4529">
    <rdf:RDF>
      <cc:Work
         rdf:about="">
        <dc:format>image/svg+xml</dc:format>
        <dc:type
           rdf:resource="http://purl.org/dc/dcmitype/StillImage" />
        <dc:title />
      </cc:Work>
    </rdf:RDF>
  </metadata>
  <path
     d="m 5.9482124,2.0025296 c 0.2146054,-0.00858 0.4151289,0.087705 0.572993,0.2455684 l 6.2210666,6.0846393 c 0.128264,0.128264 0.208392,0.2767305 0.245568,0.4365661 0.0191,0.082101 0.03256,0.1635891 0.02729,0.2455684 0.0015,0.026447 0.0011,0.055217 0,0.081856 -0.0083,0.048005 -0.01027,0.090807 -0.02729,0.1364269 -0.03549,0.1648194 -0.113542,0.3318243 -0.245569,0.4638515 L 6.5212058,15.781646 C 6.2054777,16.097374 5.6899726,16.069113 5.3479344,15.727076 L 4.1200924,14.499234 C 3.778054,14.157196 3.749793,13.614405 4.0655214,13.298677 L 6.6030619,11 0.873132,11 C 0.389417,11 0,10.37172 0,9.8880048 L 0,8.1417405 C 0,7.6580253 0.389417,7.2686086 0.873132,7.2686086 l 5.7572153,0 L 4.065521,4.7037831 C 3.749793,4.3880545 3.778054,3.8725492 4.120092,3.5305109 L 5.347934,2.2753834 C 5.5189536,2.1043642 5.733607,2.0111138 5.9482124,2.0025296 z"
     id="rect3811-1-7"
     style="opacity:0.35;color:#000000;fill:#ffffff;fill-opacity:1;fill-rule:nonzero;stroke:none;stroke-width:1;marker:none;visibility:visible;display:inline;overflow:visible;enable-background:accumulate" />
  <path
     d="m 5.9628021,0.99005125 c 0.2121095,-0.00849 0.4103009,0.0867543 0.566329,0.24290775 l 6.3098679,6.1175038 c 0.126772,0.1268743 0.205968,0.2737323 0.242712,0.4318361 0.01887,0.081211 0.03218,0.1618167 0.02697,0.2429078 0.0015,0.026161 10e-4,0.054619 0,0.080969 -0.0082,0.047485 -0.01015,0.089823 -0.02697,0.1349488 -0.03508,0.1630336 -0.112221,0.3282291 -0.242712,0.4588258 L 6.5291312,14.77699 C 6.2170751,15.089298 5.6995418,15.069174 5.3695051,14.72301 L 4.1559429,13.450146 C 3.825907,13.103983 3.789951,12.574904 4.1020069,12.262597 L 6.308839,10 0.946745,10 C 0.468656,10 0.083768,9.3673519 0.083768,8.8888775 l 0,-1.7273441 C 0.083768,6.6830592 0.468621,6 0.94671,6 L 6.308839,6 4.102007,3.7608247 C 3.792105,3.4463812 3.817883,2.938599 4.1559428,2.6002665 L 5.369505,1.2599487 C 5.5385356,1.0907826 5.7506926,0.99854245 5.9628021,0.99005125 z"
     id="rect3811-1"
     style="color:#000000;fill:url(#radialGradient3896-0);fill-opacity:1;fill-rule:nonzero;stroke:none;stroke-width:1;marker:none;visibility:visible;display:inline;overflow:visible;enable-background:accumulate" />
  <path
     d="m 5.9897702,1.5206764 c 0.073465,-0.00295 0.1534322,0.018607 0.2427124,0.107959 l 6.1487154,6.0187147 c 0.07291,0.072972 0.115625,0.1602302 0.13484,0.2429078 0.01477,0.063532 10e-4,0.091768 0,0.107959 -2.83e-4,0.00899 -2.83e-4,0.017996 0,0.02699 -0.0067,0.039064 0.0011,0.01894 0,0.02699 2.48e-4,0.00449 7.36e-4,0.00855 0,0.02699 -0.01164,0.026005 -0.02069,0.053173 -0.02697,0.080969 -0.02039,0.094763 -0.04549,0.1804764 -0.107872,0.2429078 L 6.2324826,14.421778 c -0.137953,0.138064 -0.3722747,0.140231 -0.566329,-0.05398 L 4.4525914,13.15326 C 4.2666016,12.96712 4.2694391,12.688805 4.3986554,12.559485 L 6.9066838,10.049438 C 7.1380265,9.8118139 6.9414372,9.5081732 6.6100353,9.5 l -5.5011963,0 c -0.247903,0 -0.5,-0.2518972 -0.5,-0.5 l 0,-2 c 0,-0.2481026 0.252097,-0.5 0.5,-0.5 0.784163,0 3.618032,0 5.5281643,0 C 6.9684054,6.491827 7.1649949,6.2385994 6.9336519,6.0009753 L 4.3986553,3.4639386 C 4.2607032,3.3258756 4.2585371,3.0913641 4.4525914,2.8971538 L 5.6661536,1.6556251 C 5.7634224,1.5582782 5.890192,1.5246627 5.9897702,1.5206764 z"
     id="path3996"
     style="opacity:0.1;color:#000000;fill:none;stroke:#000000;stroke-width:1;stroke-linecap:round;stroke-linejoin:round;stroke-miterlimit:4;stroke-opacity:1;stroke-dasharray:none;stroke-dashoffset:0;marker:none;visibility:visible;display:inline;overflow:visible;enable-background:accumulate" />
  <path
     d="M 5.9628021,2.546287 11.572156,8.0252066 5.9897702,13.504126 5.3155689,12.829383 7.4999809,10.643213 C 8.205214,9.9433345 7.6032094,8.4987217 6.6100353,8.5 l -5.0011963,0 0,-1 5.0281643,0 C 7.630177,7.5012779 8.232181,6.1070795 7.5269489,5.4072008 L 5.3155689,3.194041 z"
     id="path3996-3"
     style="opacity:0.02999998;color:#000000;fill:none;stroke:#000000;stroke-width:1;stroke-linecap:butt;stroke-linejoin:miter;stroke-miterlimit:4;stroke-opacity:1;stroke-dasharray:none;stroke-dashoffset:0;marker:none;visibility:visible;display:inline;overflow:visible;enable-background:accumulate" />
  <g
     transform="translate(-5,-4.000222)"
     id="g3069">
    <path
       d="m 18.75,6.0002215 c -0.404,0 -0.75,0.3460007 -0.75,0.75 l 0,11.5000005 c 0,0.403999 0.346,0.75 0.75,0.75 l 1.5,0 c 0.403999,0 0.75,-0.346001 0.75,-0.75 0.0062,-0.0017 0,-11.5000005 0,-11.5000005 0,-0.4039993 -0.346001,-0.75 -0.75,-0.75 z"
       id="path3999-9"
       style="opacity:0.35;color:#000000;fill:#ffffff;fill-opacity:1;fill-rule:nonzero;stroke:none;stroke-width:1;marker:none;visibility:visible;display:inline;overflow:visible;enable-background:accumulate" />
    <path
       d="m 20.012017,6.4836728 -0.528122,0 0,10.0322102 0.532209,0 -0.0041,-10.0322102 z"
       id="path2343"
       style="opacity:0.02999998;fill:none;stroke:#000000;stroke-width:0.9677909;stroke-linecap:square;stroke-linejoin:miter;stroke-miterlimit:4;stroke-opacity:1;stroke-dasharray:none;stroke-dashoffset:0.69999992" />
    <path
       d="M 18.75,6 C 18.346,6 18,6.3460007 18,6.75 l 0,10.499778 c 0,0.403999 0.346,0.75 0.75,0.75 l 1.5,0 c 0.403999,0 0.75,-0.346001 0.75,-0.75 C 21,17.320108 21,6.947025 21,6.75 21,6.3460007 20.653999,6 20.25,6 z"
       id="path3999"
       style="color:#000000;fill:url(#radialGradient3081);fill-opacity:1;fill-rule:nonzero;stroke:none;stroke-width:1;marker:none;visibility:visible;display:inline;overflow:visible;enable-background:accumulate" />
    <path
       d="m 18.75,6.5 c -0.1385,0 -0.25,0.1115 -0.25,0.25 l 0,10.499778 c 0,0.1385 0.1115,0.25 0.25,0.25 l 1.5,0 c 0.1385,0 0.25,-0.1115 0.25,-0.25 C 20.5,17.195258 20.5,6.75 20.5,6.75 20.5,6.6115 20.3885,6.5 20.25,6.5 z"
       id="rect3868"
       style="opacity:0.1;color:#000000;fill:none;stroke:#000000;stroke-width:1;stroke-linecap:round;stroke-linejoin:round;stroke-miterlimit:4;stroke-opacity:1;stroke-dasharray:none;marker:none;visibility:visible;display:inline;overflow:visible;enable-background:accumulate" />
    <path
       d="m 19.53125,7.531 0,8.937528 0.9375,0 0,-8.937528 z"
       id="path4060"
       style="opacity:0.02999998;color:#000000;fill:none;stroke:#000000;stroke-width:1;stroke-linecap:butt;stroke-linejoin:miter;stroke-miterlimit:4;stroke-opacity:1;stroke-dasharray:none;marker:none;visibility:visible;display:inline;overflow:visible;enable-background:accumulate" />
  </g>
</svg>

<svg xmlns="http://www.w3.org/2000/svg" xmlns:xlink="http://www.w3.org/1999/xlink" viewBox="0 0 16 16"><defs><radialGradient cx="16.202" cy="-19.005" r="20" fx="16.202" fy="-19.005" id="c" xlink:href="#a" gradientUnits="userSpaceOnUse" gradientTransform="matrix(0 1.2955 1.3153 0 31.265 -22.27)"/><linearGradient id="a"><stop offset="0" stop-color="#737373"/><stop offset=".262" stop-color="#636363"/><stop offset=".705" stop-color="#4b4b4b"/><stop offset="1" stop-color="#3f3f3f"/></linearGradient><linearGradient id="b"><stop offset="0" stop-color="#737373"/><stop offset=".262" stop-color="#636363"/><stop offset=".705" stop-color="#4b4b4b"/><stop offset="1" stop-color="#3f3f3f"/></linearGradient><radialGradient cx="16.202" cy="-19.005" r="20" fx="16.202" fy="-19.005" id="d" xlink:href="#b" gradientUnits="userSpaceOnUse" gradientTransform="matrix(0 1.5 -1.52413 0 .04 -24.078)"/></defs><path d="M5.948 2.003a.772.772 0 0 1 .573.245l6.23 6.085a.9.9 0 0 1 .247.436c.02.08.03.16.027.24a.86.86 0 0 1 0 .08c-.01.05-.01.09-.027.134a.93.93 0 0 1-.248.464l-6.22 6.085c-.318.315-.833.287-1.175-.055L4.12 14.5c-.342-.343-.37-.886-.054-1.2L6.603 11H.873C.39 11 0 10.372 0 9.888V8.142a.87.87 0 0 1 .873-.873H6.63L4.066 4.7c-.316-.316-.288-.83.054-1.173L5.348 2.27a.904.904 0 0 1 .6-.27z" opacity=".35" color="#000" fill="#fff" overflow="visible"/><path d="M5.963.99a.762.762 0 0 1 .566.243l6.31 6.117a.89.89 0 0 1 .24.432.81.81 0 0 1 .02.243.875.875 0 0 1 0 .08c-.01.05-.01.09-.028.136a.92.92 0 0 1-.244.46l-6.31 6.08c-.313.31-.83.29-1.16-.05l-1.21-1.272c-.33-.345-.367-.874-.055-1.186L6.31 10H.946C.47 10 .084 9.367.084 8.89V7.16C.084 6.682.47 6 .947 6H6.31L4.1 3.76c-.31-.314-.284-.82.054-1.16L5.37 1.26c.17-.17.38-.26.593-.27z" color="#000" fill="url(#c)" overflow="visible"/><path d="M5.99 1.52c.073-.002.153.02.242.11l6.15 6.017a.51.51 0 0 1 .134.243c.015.064 0 .092 0 .108v.027c-.007.04 0 .02 0 .027v.027a.43.43 0 0 0-.027.08.466.466 0 0 1-.11.24l-6.15 6.02c-.14.13-.37.14-.57-.06l-1.21-1.21c-.187-.187-.185-.465-.055-.595l2.507-2.51c.23-.238.034-.542-.297-.55h-5.5c-.25 0-.5-.252-.5-.5V7c0-.248.25-.5.5-.5h5.527c.33-.008.528-.26.297-.5L4.4 3.465c-.14-.138-.14-.373.053-.567l1.213-1.24a.485.485 0 0 1 .324-.136z" opacity=".1" color="#000" fill="none" stroke="#000" stroke-linecap="round" stroke-linejoin="round" overflow="visible"/><path d="M5.963 2.546l5.61 5.48-5.583 5.478-.674-.675L7.5 10.64c.705-.7.103-2.144-.89-2.143h-5v-1h5.027c.993 0 1.595-1.394.89-2.094L5.317 3.19z" opacity=".03" color="#000" fill="none" stroke="#000" overflow="visible"/><path d="M13.75 2a.763.763 0 0 0-.75.75v11.5c0 .404.346.75.75.75h1.5c.404 0 .75-.346.75-.75.006-.002 0-11.5 0-11.5a.763.763 0 0 0-.75-.75z" opacity=".35" color="#000" fill="#fff" overflow="visible"/><path d="M15.012 2.483h-.528v10.033h.532l-.004-10.033z" opacity=".03" fill="none" stroke="#000" stroke-width=".968" stroke-linecap="square" stroke-dashoffset=".7"/><path d="M18.75 6a.763.763 0 0 0-.75.75v10.5c0 .404.346.75.75.75h1.5c.404 0 .75-.346.75-.75V6.75a.763.763 0 0 0-.75-.75z" color="#000" fill="url(#d)" overflow="visible" transform="translate(-5 -4)"/><path d="M13.75 2.5a.25.25 0 0 0-.25.25v10.5c0 .138.112.25.25.25h1.5a.25.25 0 0 0 .25-.25V2.75a.25.25 0 0 0-.25-.25z" opacity=".1" color="#000" fill="none" stroke="#000" stroke-linecap="round" stroke-linejoin="round" overflow="visible"/><path d="M14.53 3.53v8.94h.94V3.53z" opacity=".03" color="#000" fill="none" stroke="#000" overflow="visible"/></svg>
